X:235
T: Már Füzesen kihajtották a nyájat
M:4/4
L:1/8
K:F
B>GGG BBGG | B2<B2 A2 z2 |
BGGG BBGG | B2<B2 A2 z2 |
ccc<c (3:2:3 dcc c2 | (3:2:3 G=Bd d2 ed d2 |
dAAA AA cc | =B2<G2 G z2 |

